X:1
T:Memory
T:Memory Variation With Vocal Part
T:Cats 
T:Original By: Andrew Lloyd Webber Variation By: Diabetus_1 
T: 
C:Andrew Lloyd Webber
%%score 1 { 2 | ( 3 4 ) }
L:1/8
Q:1/4=70
M:12/8
K:Bb
V:1 treble nm="Voice" snm="Vo."
V:2 treble nm="Piano" snm="Pno."
V:3 bass 
V:4 bass 
V:1
"^\n" b3 b3- bab c'bg | b3 b3- bab c'b>f | g3 g3- gef gfe | d6- d3 d2 f | f3 c2 d!<(! efg a!<)!ba | %5
 g f3- f3 d2 B f2- | f3- f z2 G G2 B (B2 | B3-) B z8 |[Q:1/4=80] z4 z8 | z12 | b3 b3- bab c'bg | %11
 b3 b3- bab c'b>f | g3 g3- gef gfe | d6- d3 d2 f |[M:10/8] f3 c2 d!<(! efga!<)! | %15
[M:12/8] bag f3- f3 d2 B | f6 z2 G G2 B | B6 z2 z4 | b3 b3- bab c'bg | b3 b3- bab c'b>f | %20
 g3 g3- gef gfe | d6- d3 D2 F |[M:10/8] F3 C2 D!<(! EFGA!<)! |[M:12/8] BAG F3- F3 d2 B | %24
 f6 z2 G G2 B | B6 z2 z4 | B3 B3- BAB cBG | B3 B3- BAB cB>F | G3 G3- GEF GFE | D6- D3 D2 F | %30
[M:10/8] F3 C2 D!<(! EFGA!<)! |[M:12/8] BAG F3- F3 d2 B | f6 z2 G G2 B | B6 z2 z4 | %34
 B3 B3- BAB cBG | B3 B3- BAB cB>F | G3 G3- GEF GFE | D6- D3 D2 F |[M:10/8] F3 C2 D!<(! EFGA!<)! | %39
[M:12/8] BAG F3- F3 d2 B |[Q:1/4=80]"^Rit." f6 z2[Q:1/4=75] G[Q:1/4=70] G2[Q:1/4=65] B | %41
[Q:1/4=60]"^\n\n" B12 |] %42
V:2
 z12 | z12 | z12 | z12 | z12 | z12 | z2 x2 x8 | z12 |!mp! z12 | z12 | b3 b3- bab c'bg | %11
 b3 b3- bab c'b>f | g3 g3- gef gfe | d6- d3 d2 f |[M:10/8] f3 c2 d!<(! efga!<)! | %15
[M:12/8] bag f3- f3 d2 B | !arpeggio![Acf]6 z2 G G2 B | B6 z2 z4 | %18
 !arpeggio![dfb]3 !arpeggio![dfb]3- [dfb]ab c'bg | %19
 !arpeggio![dgb]3 !arpeggio![dgb]3- [dgb]ab c'b>f | %20
 !arpeggio![Beg]3 !arpeggio![Beg]3- [Beg]ef gfe | !arpeggio![FAd]6- [FAd]3 D2 F | %22
[M:10/8] F3 C2 D!<(! EFGA!<)! |[M:12/8] BAG F3- F3 d2 B | !arpeggio![Acf]6 z2 G G2 B | B6 z2 z4 | %26
 B3 B3- BAB cBG | B3 B3- BAB cB>F | G3 G3- GEF GFE | D6- D3 D2 F |[M:10/8] F3 C2 D!<(! EFGA!<)! | %31
[M:12/8] BAG F3- F3 d2 B | !arpeggio![Acf]6 z2 G G2 B | B6 z2 z4 | B3 B3- BAB cBG | %35
 B3 B3- BAB cB>F | G3 G3- GEF GFE | D6- D3 D2 F |[M:10/8] F3 C2 D!<(! EFGA!<)! | %39
[M:12/8] BAG F3- F3 d2 B | !arpeggio![Acf]6 z2 G G2 B | B12 |] %42
V:3
 z12 | z12 | z12 | z12 | z12 | z12 | z12 | z12 | (B,,F,D- DF,D) (B,,F,D- DF,D) | %9
 (B,,F,D- DF,D) (B,,F,D- DF,D) | (B,,F,D- DF,D) (B,,F,D- DF,D) | %11
 (G,,D,B,- B,D,B,) (G,,D,B,- B,D,B,) | (E,,B,,G,- G,B,,G,) (E,,B,,G,- G,B,,G,) | %13
 (D,,A,,F,- F,A,,F,) (D,,A,,F, A,F,D,) |[M:10/8] (C,E,G, CG,E,) C,G,CG, | %15
[M:12/8] (G,,D,G, B,G,D,) (G,,D,G, B,3) | F,,C,F, A,CF !arpeggio![F,B,E]6 | %17
 (B,,F,D- DF,D) (B,,F,D- DF,D) | (B,,F,D- DF,D) (B,,F,D- DF,D) | %19
 (G,,D,B,- B,D,B,) (G,,D,B,- B,D,B,) | (E,,B,,G,- G,B,,G,) (E,,B,,G,- G,B,,G,) | %21
 (D,,A,,F,- F,A,,F,) (D,,A,,F, A,F,D,) |[M:10/8] (C,E,G, CG,E,) (C,G,CG,) | %23
[M:12/8] (G,,D,G, B,G,D,) (G,,D,G, B,3) | F,,C,F, A,CF !arpeggio![F,B,E]6 | %25
 (B,,F,D- DF,D) (B,,F,D- DF,D) | (B,,F,D- DF,D) (B,,F,D- DF,D) | %27
 (G,,D,B,- B,D,B,) (G,,D,B,- B,D,B,) | (E,,B,,G,- G,B,,G,) (E,,B,,G,- G,B,,G,) | %29
 (D,,A,,F,- F,A,,F,) (D,,A,,F, A,F,D,) |[M:10/8] (C,E,G, CG,E,) C,G,CG, | %31
[M:12/8] (G,,D,G, B,G,D,) (G,,D,G, B,3) | F,,C,F, A,CF !arpeggio![F,B,E]6 | %33
 (B,,F,D- DF,D) (B,,F,D- DF,D) | (B,,F,D- DF,D) (B,,F,D- DF,D) | %35
 (G,,D,B,- B,D,B,) (G,,D,B,- B,D,B,) | (E,,B,,G,- G,B,,G,) (E,,B,,G,- G,B,,G,) | %37
 (D,,A,,F,- F,A,,F,) (D,,A,,F, A,F,D,) |[M:10/8] (C,E,G, CG,E,) C,G,CG, | %39
[M:12/8] (G,,D,G, B,G,D,) (G,,D,G, B,3) | F,,C,F, A,CF !arpeggio![F,B,E]6 | %41
 !arpeggio![B,,D,F,]12 |] %42
V:4
 x12 | x12 | x12 | x12 | x12 | x12 | x12 | x12 | B,,6 B,,6 | B,,6 B,,6 | B,,6 B,,6 | G,,6 G,,6 | %12
 E,,6 E,,6 | D,,6 D,,6 |[M:10/8] C,6 C,4 |[M:12/8] G,,6 G,,6 | F,,6 G,6 | B,,6 B,,6 | B,,6 B,,6 | %19
 G,,6 G,,6 | E,,6 E,,6 | D,,6 D,,6 |[M:10/8] C,6 C,4 |[M:12/8] G,,6 G,,6 | F,,6 G,6 | B,,6 B,,6 | %26
 B,,6 B,,6 | G,,6 G,,6 | E,,6 E,,6 | D,,6 D,,6 |[M:10/8] C,6 C,4 |[M:12/8] G,,6 G,,6 | F,,6 G,6 | %33
 B,,6 B,,6 | B,,6 B,,6 | G,,6 G,,6 | E,,6 E,,6 | D,,6 D,,6 |[M:10/8] C,6 C,4 |[M:12/8] G,,6 G,,6 | %40
 F,,6 G,6 | x12 |] %42

